packages/react-icons/icons/info-circle-filled.svg

<svg width="24" height="24" viewBox="0 0 24 24" xmlns="http://www.w3.org/2000/svg"><path fill-rule="evenodd" clip-rule="evenodd" d="M24 12C24 18.6274 18.6274 24 12 24C5.37258 24 0 18.6274 0 12C0 5.37258 5.37258 0 12 0C18.6274 0 24 5.37258 24 12ZM11.0998 11.6206H10.1456C9.64855 11.6206 9.24561 11.2176 9.24561 10.7206C9.24561 10.2235 9.64855 9.82059 10.1456 9.82059H11.9998C12.4969 9.82059 12.8998 10.2235 12.8998 10.7206C12.8998 10.744 12.899 10.7671 12.8972 10.7901C12.8989 10.813 12.8998 10.8361 12.8998 10.8594V15.8505H13.8541C14.3511 15.8505 14.7541 16.2534 14.7541 16.7505C14.7541 17.2475 14.3511 17.6505 13.8541 17.6505H10.1456C9.64855 17.6505 9.24561 17.2475 9.24561 16.7505C9.24561 16.2534 9.64855 15.8505 10.1456 15.8505H11.0998V11.6206ZM12.9133 7.66193C12.9133 8.27614 12.4154 8.77405 11.8012 8.77405C11.187 8.77405 10.6891 8.27614 10.6891 7.66193C10.6891 7.04772 11.187 6.5498 11.8012 6.5498C12.4154 6.5498 12.9133 7.04772 12.9133 7.66193Z"/></svg>

<svg xmlns="http://www.w3.org/2000/svg" width="24" height="24"><path fill-rule="evenodd" d="M24 12c0 6.627-5.373 12-12 12S0 18.627 0 12 5.373 0 12 0s12 5.373 12 12Zm-12.9-.38h-.954a.9.9 0 0 1 0-1.8H12a.9.9 0 0 1 .897.97.936.936 0 0 1 .003.07v4.99h.954a.9.9 0 0 1 0 1.8h-3.708a.9.9 0 0 1 0-1.8h.954v-4.23Zm1.813-3.958a1.112 1.112 0 1 1-2.224 0 1.112 1.112 0 0 1 2.224 0Z" clip-rule="evenodd"/></svg>
